X:24
T:Das Feld...
R:
O:Deutschland
B:Frau Nachtigall (Straburg - 1928)
Z:<anamnese@laposte.net> -- http://anamnese.fr.st
N:p.59
M:9/8
L:1/8
Q:1/8=150
K:F
V:1
c | c C B B3 A2 F | A>G E F3-F z C | F3/2 E/4 G G3 F2 D |
C3/2 B,/4 C A3-A z F/4G/4 | A F E (D2F) A2 F | E3/2 D/4 E F3-F z |]
V:2
c | c C d d3 c2 A | c>B G A3-A z C | A3/2 G/4 B B3 A2 F |
A3/2 G/4 E  F3-F z A/4B/4 | c A c f3    c2 A | c3/2 B/4 G F3-F z |]
W:1. Das Feld steht in Blumen voll Honingseim; 
W: ich hab mich verloren und find nimmer heim,
W: ich hab mich verloren und find nimmer heim.
